svgs/duotone/piggy-bank.svg

<svg xmlns="http://www.w3.org/2000/svg" viewBox="0 0 576 512"><!--! Font Awesome Pro 6.4.2 by @fontawesome - https://fontawesome.com License - https://fontawesome.com/license (Commercial License) Copyright 2023 Fonticons, Inc. --><path class="fa-primary" style="fill:var(--fa-primary-color,inherit);opacity:var(--fa-primary-opacity,1);" d="M507 115.9l-13.8 55.2c15.8 14.8 28.7 32.8 37.5 52.9H544c17.7 0 32 14.3 32 32v96c0 17.7-14.3 32-32 32H512c-9.1 12.1-19.9 22.9-32 32v64c0 17.7-14.3 32-32 32H416c-17.7 0-32-14.3-32-32V448H256v32c0 17.7-14.3 32-32 32H192c-17.7 0-32-14.3-32-32V416c-34.9-26.2-58.7-66.3-63.2-112H68c-37.6 0-68-30.4-68-68s30.4-68 68-68h4c13.3 0 24 10.7 24 24s-10.7 24-24 24H68c-11 0-20 9-20 20s9 20 20 20H99.2C114 183 178.6 128 256 128H384c7.8 0 15.5 .6 23 1.6C424.6 109.1 450.8 96 480 96h11.5c10.4 0 18 9.8 15.5 19.9zM424 288a24 24 0 1 0 0-48 24 24 0 1 0 0 48z"/><path class="fa-secondary" style="fill:var(--fa-secondary-color,inherit);opacity:var(--fa-secondary-opacity,.4);" d="M400 96c0 11.3-2 22.2-5.6 32.3c-3.4-.2-6.9-.3-10.4-.3H256c-14 0-27.6 1.8-40.5 5.2c-4.8-11.4-7.5-24-7.5-37.2c0-53 43-96 96-96s96 43 96 96z"/></svg>

<svg xmlns="http://www.w3.org/2000/svg" viewBox="0 0 576 512"><!--! Font Awesome Pro 6.1.1 by @fontawesome - https://fontawesome.com License - https://fontawesome.com/license (Commercial License) Copyright 2022 Fonticons, Inc. --><defs><style>.fa-secondary{opacity:.4}</style></defs><path class="fa-primary" d="M512 96L493.2 171.1C509.1 185.9 521.9 203.9 530.7 224H544C561.7 224 576 238.3 576 256V352C576 369.7 561.7 384 544 384H512C502.9 396.1 492.1 406.9 480 416V480C480 497.7 465.7 512 448 512H416C398.3 512 384 497.7 384 480V448H256V480C256 497.7 241.7 512 224 512H192C174.3 512 160 497.7 160 480V416C125.1 389.8 101.3 349.8 96.79 304H68C30.44 304 0 273.6 0 236C0 198.4 30.44 168 68 168H72C85.25 168 96 178.7 96 192C96 205.3 85.25 216 72 216H68C56.95 216 48 224.1 48 236C48 247 56.95 256 68 256H99.2C114 182.1 178.6 128 256 128H384C391.8 128 399.5 128.6 407 129.6C424.6 109.1 450.8 96 480 96H512zM424 288C437.3 288 448 277.3 448 264C448 250.7 437.3 240 424 240C410.7 240 400 250.7 400 264C400 277.3 410.7 288 424 288z"/><path class="fa-secondary" d="M400 96L399.1 96.66C394.7 96.22 389.4 96 384 96H256C239.5 96 223.5 98.08 208.2 102C208.1 100 208 98.02 208 96C208 42.98 250.1 0 304 0C357 0 400 42.98 400 96z"/></svg>
